src/assets/duotone/TruckTime.svg

<svg width="24" height="24" viewBox="0 0 24 24"  xmlns="http://www.w3.org/2000/svg">
<path d="M5 1C4.06 1 3.19 1.33 2.5 1.88C1.58 2.61 1 3.74 1 5C1 7.21 2.79 9 5 9C6.01 9 6.93001 8.62 7.64001 8C8.47001 7.27 9 6.2 9 5C9 2.79 7.21 1 5 1ZM6 5.25C6 5.51 5.86001 5.76001 5.64001 5.89001L4.39001 6.64001C4.27001 6.71001 4.14001 6.75 4.01001 6.75C3.76001 6.75 3.51 6.62001 3.37 6.39001C3.16 6.03001 3.27 5.56999 3.63 5.35999L4.52002 4.83002V3.75C4.52002 3.34 4.86002 3 5.27002 3C5.68002 3 6.02002 3.34 6.02002 3.75V5.25H6Z" />
<path opacity="0.4" d="M15 3V12C15 13.1 14.1 14 13 14H2V7.62C2.73 8.49 3.85003 9.03 5.09003 9C6.10003 8.98 7.01 8.59 7.69 7.94C8 7.68 8.26002 7.34999 8.46002 6.98999C8.82002 6.37999 9.02 5.65997 9 4.90997C8.97 3.73997 8.45001 2.71 7.64001 2H14C14.55 2 15 2.45 15 3Z" />
<path d="M22 14V17C22 18.66 20.66 20 19 20H18C18 18.9 17.1 18 16 18C14.9 18 14 18.9 14 20H10C10 18.9 9.1 18 8 18C6.9 18 6 18.9 6 20H5C3.34 20 2 18.66 2 17V14H13C14.1 14 15 13.1 15 12V5H16.84C17.56 5 18.22 5.39001 18.58 6.01001L20.29 9H19C18.45 9 18 9.45 18 10V13C18 13.55 18.45 14 19 14H22Z" />
<path opacity="0.4" d="M8 22C9.10457 22 10 21.1046 10 20C10 18.8954 9.10457 18 8 18C6.89543 18 6 18.8954 6 20C6 21.1046 6.89543 22 8 22Z" />
<path opacity="0.4" d="M16 22C17.1046 22 18 21.1046 18 20C18 18.8954 17.1046 18 16 18C14.8954 18 14 18.8954 14 20C14 21.1046 14.8954 22 16 22Z" />
<path opacity="0.4" d="M22 12.53V14H19C18.45 14 18 13.55 18 13V10C18 9.45 18.45 9 19 9H20.29L21.74 11.54C21.91 11.84 22 12.18 22 12.53Z" />
</svg>

<?xml version="1.0" encoding="UTF-8"?>
<svg width="24" height="24" viewBox="0 0 24 24" xmlns="http://www.w3.org/2000/svg">
 <path d="m5 1c-0.94 0-1.81 0.33-2.5 0.88-0.92 0.73-1.5 1.86-1.5 3.12 0 2.21 1.79 4 4 4 1.01 0 1.93-0.38 2.64-1 0.83-0.73 1.36-1.8 1.36-3 0-2.21-1.79-4-4-4zm1 4.25c0 0.26-0.13999 0.51001-0.35999 0.64001l-1.25 0.75c-0.12 0.07-0.25 0.10999-0.38 0.10999-0.25 0-0.50001-0.12999-0.64001-0.35999-0.21-0.36-0.1-0.82002 0.26-1.03l0.89002-0.52997v-1.08c0-0.41 0.34-0.75 0.75-0.75s0.75 0.34 0.75 0.75v1.5h-0.02002z"/>
 <path d="m15 3v9c0 1.1-0.9 2-2 2h-11v-6.38c0.73 0.87 1.85 1.41 3.09 1.38 1.01-0.02 1.92-0.41 2.6-1.06 0.31-0.26 0.57002-0.59001 0.77002-0.95001 0.36-0.61 0.55998-1.33 0.53998-2.08-0.03-1.17-0.54999-2.2-1.36-2.91h6.36c0.55 0 1 0.45 1 1z" opacity=".4"/>
 <path d="m22 14v3c0 1.66-1.34 3-3 3h-1c0-1.1-0.9-2-2-2s-2 0.9-2 2h-4c0-1.1-0.9-2-2-2s-2 0.9-2 2h-1c-1.66 0-3-1.34-3-3v-3h11c1.1 0 2-0.9 2-2v-7h1.84c0.72 0 1.38 0.39001 1.74 1.01l1.71 2.99h-1.29c-0.55 0-1 0.45-1 1v3c0 0.55 0.45 1 1 1h3z"/>
 <path d="m8 22c1.1046 0 2-0.8954 2-2s-0.89543-2-2-2-2 0.8954-2 2 0.89543 2 2 2z" opacity=".4"/>
 <path d="m16 22c1.1046 0 2-0.8954 2-2s-0.8954-2-2-2-2 0.8954-2 2 0.8954 2 2 2z" opacity=".4"/>
 <path d="m22 12.53v1.47h-3c-0.55 0-1-0.45-1-1v-3c0-0.55 0.45-1 1-1h1.29l1.45 2.54c0.17 0.3 0.26 0.64 0.26 0.99z" opacity=".4"/>
</svg>
